X:1
T:Apple Picker's Reel
M:4/4
L:1/8
K:C
 g4 e2 ee| d2 d2 A2 AA| BB BB BA GG| c2 c2 g4| g4 e3 e| d2 d2 A4| GG GG g g2 g|\
 e2 c2 c4|
